X: 3
T: Harvest Storm
Z: Erik-Fiddler
S: https://thesession.org/tunes/356#setting52682
R: reel
M: 4/4
L: 1/8
K: Amaj
[A3e3] f eAce|fAgA ag f/g/a|(3e/e/e/e ef eAcA|GABc dfaf|
(3e/f/e/e ef eAce|fd (3d/d/d/d ag f/g/a|(3e/e/e/e ef eAcA|GABc defg||
(3a/a/a/a ga eAce|aA (3A/A/A/A eAce|a/b/a ga aecA|GABc defg|
[a2A2] ga eAce|aA (3A/A/A/A [A2e2] e/f/g|aAgA fAeA|Bcde fgaf|
[A4e4]||

%-------------------- TUNE SEPARATOR --------------------%

